X:1
T:Title
%%score { ( 1 3 4 ) | ( 2 5 ) }
L:1/8
Q:1/4=104
M:3/4
K:Bb
V:1 treble nm="Grand Piano"
V:3 treble 
V:4 treble 
V:2 bass 
V:5 bass 
V:1
 [DF][D^F] [DG]2 [DB]2 | [EB][EA] [EA]4 | EF A2 G2 | [EG][DF] [DF]4 | [DF][DB] [Ge]2 [Fd]2 | %5
w: C.~Harold~Lowden * * *|||||
 cG G4 | FA d2 c2 | [DB]2 [FA]2 [EG]2 | [DF][D^F] [DG]2 [DB]2 | [EB][EA] [EA]4 | EF A2 G2 | %11
w: ||||||
 [EG][DF] [DF]4 | G=B e2 d2 | [Ec][EG] [EG]2 [EB]2 | A2 F2 c2 | [B,DB]6 | z2 z d [Bd]d | [Ae]6 | %18
w: |||||||
 z2 z e [Ae]e | [Gd]6 | z2 z =B [GB]B | [Fd]2 [Ec]2 [Gc]2 | [Be]2 [Ae]2 [ce]2 | z2 [df]4 | %24
w: ||||||
 z2 z d [Bd]d | [Ae]6 | z2 z e [Ae]e | [Gd]6 | z2 z d [eg]f | [c=e]2 [=EGe]2 [EBe]2 | %30
w: ||||||
 [Ae]2 [Fe]2 [ce]2 | [Bd]6 |] %32
w: ||
V:2
 [B,,B,][B,,B,] [B,,B,]2 [B,,F,]2 | [C,F,][C,F,] [C,F,]4 | [F,A,C][F,A,D] [F,CE]2 [F,A,E]2 | %3
 [B,,B,][B,,B,] [B,,B,]4 | [B,,B,][B,,B,] [B,,B,]2 [B,,B,]2 | [E,G,E][E,CE] [E,CE]4 | %6
 [F,A,E][F,CE] [F,G,F]2 [F,A,E]2 | [B,,B,]2 [B,,B,]2 [B,,B,]2 | [B,,B,][B,,B,] [B,,B,]2 [B,,F,]2 | %9
 [C,F,][C,F,] [C,F,]4 | [F,A,C][F,A,D] [F,CE]2 [F,A,E]2 | [B,,B,][B,,B,] [B,,B,]4 | %12
 [G,=B,F][G,DF] [G,A,G]2 [G,B,F]2 | [C,C][C,C] [C,C]2 [C,G,]2 | [F,E]2 [F,A,E]2 [F,A,E]2 | B,,6 | %16
 B,,2 z[K:treble] c z G | C,2 F,2 F,2 | F,,2 z[K:treble] B z F | B,,2 F,2 F,2 | G,,2 z _A z D | %21
 C,,2 [E,G,C]2 [E,G,C]2 | F,,2 [F,A,E]2 [F,A,E]2 | B,,2 [F,B,D]2 F,2 | B,,2 z[K:treble] c z G | %25
 C,2 F,2 F,2 | F,,2 z[K:treble] B z F | B,,2 F,2 F,2 | G,,2 z[K:treble] =B z d | %29
 C,,2 [G,B,C]2 [G,B,C]2 | F,,2 [F,A,E]2 [F,A,E]2 | B,,2 F,4 |] %32
V:3
 x6 | x6 | x6 | x6 | x6 | x6 | x6 | x6 | x6 | x6 | x6 | x6 | x6 | x6 | x6 | x6 | [Bd]4 z2 | %17
 z2 [A,E]2 [A,E]2 | [Ae]4 z2 | z2 [B,D]2 [B,D]2 | [G=B]4 z2 | x6 | x6 | [eg]2 z2 [B,D]2 | %24
 [Bd]4 z2 | z2 [A,E]2 [A,E]2 | [Ae]4 z2 | z2 [B,D]2 [B,D]2 | [G=B]4 z2 | x6 | x6 | z2 [B,D]4 |] %32
V:4
 x6 | x6 | x6 | x6 | x6 | x6 | x6 | x6 | x6 | x6 | x6 | x6 | x6 | x6 | x6 | x6 | z2 [B,D]2 z2 | %17
 x6 | z2 [A,E]2 z2 | x6 | z2 [G,=B,]2 z2 | x6 | x6 | x6 | z2 [B,D]2 z2 | x6 | z2 [A,E]2 z2 | x6 | %28
 z2 [G,=B,]2 z2 | x6 | x6 | x6 |] %32
V:5
 x6 | x6 | x6 | x6 | x6 | x6 | x6 | x6 | x6 | x6 | x6 | x6 | x6 | x6 | x6 | x6 | %16
 z2 F,2[K:treble] [F,B,D]2 | x6 | z2 F,2[K:treble] [F,A,E]2 | x6 | z2 F,2 [F,G,=B,]2 | x6 | x6 | %23
 x6 | z2 F,2[K:treble] [F,B,D]2 | x6 | z2 F,2[K:treble] [F,A,E]2 | x6 | %28
 z2 F,2[K:treble] [F,G,=B,]2 | x6 | x6 | x6 |] %32

